X: 16
T: The Mason's Apron
R: reel
M: 4/4
L: 1/8
K: Amaj
(3efg|aA A2 ABAF|EFAB cABc|dB !turn!B2 BABc|dcde fefg|
aA A2 ABAF|EFAB cABc|dcde fgaf|edcB A2:|
AB|c2 ec fcec|c2 ec fcec|d2 fd gdfd|d2 fd gdfd|
c2 ec fcec|acec fcec|dcde fgaf|edcB A2:|


Tune 74	Setting 12548

